X:1
T:Title
%%score { ( 1 3 ) | 2 }
L:1/8
Q:1/4=114
M:6/4
K:G
V:1 treble nm="Grand Piano"
V:3 treble 
V:2 bass 
V:1
 [DB]4 [CA]2 [B,G]4 [CF][DG] | A2 G2 E2 [B,D]4 [G,B,][A,C] | [B,D]2 [DG]2 A2 B2 A2 G2 | A12 | %4
w: Charles~H.~Gabriel * * * *||||
 [DB]3 [^C_B] [D=B]2 [B,G]2 [=CF]2 [DG]2 | A2 G2 E2 [B,D]4 [DG][EA] | B4 BB A4 GA | %7
w: |||
[M:5/4] [B,G]2- [B,G]2- [B,G]6 |[M:1/4] B>c |[M:6/4] d4 ed B2 A2 G2 | B12 | .c6 z6 | d12 | %13
w: ||||||
 d4 ed B4 AB | G2 E2 G2 D4 [DG][EA] | B4 BB A4 GA | [B,G]12 |] %17
w: ||||
V:2
 [G,,G,]4 [G,,G,]2 [G,,D,]4 [A,,D,][B,,G,] | [C,E,C]2 [C,E,C]2 [C,G,C]2 [G,,G,]4 [G,,D,][G,,D,] | %2
 [G,,G,]2 [B,,G,]2 [D,F,D]2 [G,D]2 [F,A,D]2 [E,A,^C]2 | [D,F,D]4 [E,G,]2 [D,F,]4 [G,,G,][G,,G,] | %4
 [G,,G,]3 [G,,G,] [G,,G,]2 [G,,D,]2 [A,,D,]2 [B,,G,]2 | %5
 [C,E,C]2 [C,E,C]2 [C,G,C]2 [G,,G,]4 [B,,G,][C,G,] | %6
 [D,G,D]4 [D,G,D][D,G,D] [D,F,C]4 [D,E,C][D,F,C] |[M:5/4] [G,,D,G,]2- [G,,D,G,]2- [G,,D,G,]6 | %8
[M:1/4][K:treble] [G,D]>[G,A,D] |[M:6/4] [G,B,G]4 [G,CG][G,B,G] [G,DG]2 [G,CD]2 [G,B,D]2 | %10
 [G,DG]2[K:bass] [G,D]2 [G,D]2 [G,D]4 [=F,D][F,D] | [E,C]6 [A,EG]4 [A,,A,]2 | %12
 [D,A,]2 [D,A,]2 [D,B,]2 [D,C]4[K:treble] [G,DG][G,A,G] | %13
 [G,B,G]4 [G,CG][G,B,G][K:bass] [G,D]4 [D,F,C][D,F,C] | %14
 [E,G,B,]2 [C,G,C]2 [E,G,C]2 [G,B,]4 [B,,G,][C,G,] | %15
 [D,G,D]4 [D,G,D][D,G,D] [D,F,C]4 [D,E,C][D,F,C] | [G,,D,G,]12 |] %17
V:3
 x12 | x12 | x12 | z4 ^C2 =C4 [B,G][CA] | x12 | x12 | x12 |[M:5/4] x10 |[M:1/4] x2 |[M:6/4] x12 | %10
 z2 G2 G2 G4 [GB][GB] | G2- [G-c]2 [Gc]2 ^c2 c2 [Gc]2 | F2 F2 G2 A4 Bc | x12 | x12 | x12 | x12 |] %17

